X:133
T:Don't Pick Me Up
C:Sierra Hull - Daybreak
N:mandolin: Sierra Hull - Transcribed by Philippe Colleu
R:bluegrass
L:1/8
Q:1/4=150
M:4/4
K:C
"(121 bpm)"z2 ^FA AF E/F/E | "D"D2 DE ^FA B^c | d^c de ^f^g af | "A"e2 ^ce e^f ec | 
B/^c/B Ac BA Bc | "D"d^c de ^f^g a2 | "E"^f^g gb fg/f/ eg | "A"^f^g af ed ^cB | 
A^F AA AF E/F/E | "D"D2 B,D DB, A,B, | DE ^FB AF EA | "A"E^C A,B, CE ^FE | AB ^ce B/c/B Ac | 
"B"B^c d^d ^fd ^gd | ^f^d ^c/d/c Bc df | "E"e^c dB cA B^G | A^G ^FE D^C B,C | 
"A"E8 | 


